X: 41
T: We have salt
N: Derived from ojibwa41.krn
C: Chippewa Songs ~ 1910
O: Red Wing, Minnesota, U.S.A
N: Chippewa Music by Frances Densmore, 1910
Z: transcribed to **kern format by Paul von Hippel and Daniel T. Shanahan
L: 1/8
M: 2/4
Q: 1/4=108
K: Ab clef=bass
%%linebreak <none>
A,2A,2 | 
[M:3/4]A,2A,2C C | 
C A,A,2A, A, | 
A,2F,2A, A, | 
C2A,2F, F, | 
E,2E,2A, A, | 
C2A,2F, F, | 
E,2C,2E,2 | 
F,2F, F, E, C, | 
[M:2/4]A,,2C,2 | 
A,,2A,, A,, | 
A,,4 |]  



